X:1
T:Title
%%score { 1 | 2 }
L:1/8
M:9/8
K:Bb
V:1 treble nm="Grand Piano"
V:2 bass 
V:1
 z3 z3[Q:1/4=100] [DF]3 | [DF]D[DF] [DB]3 [DF]2 [DF] | GEG [GB]3 G3 | F2 F [DB]2 c dcB | %4
[M:3/4] c6 |[M:3/8] [DF]3 |[M:9/8] [DF]D[DF] [DB]3 [DF]2 [DF] | GEG [GB]3 G3 | %8
 F2 F [DB]2 [DB] cBA |[M:3/4] [DB]6 |] %10
V:2
 z3 z3 [B,,B,]3 | [B,,B,][B,,B,][B,,B,] [B,,B,]3 [B,,B,]2 [B,,B,] | %2
 [E,B,E][E,G,][E,B,E] [E,B,]3 [E,B,E]3 | [D,B,]2 [D,B,] [B,,B,]2 [F,A,F] [F,B,F][F,A,F][F,B,D] | %4
[M:3/4] [F,A,F]6 |[M:3/8] [B,,B,]3 |[M:9/8] [B,,B,][B,,B,][B,,B,] [B,,B,]3 [B,,B,]2 [B,,B,] | %7
 [E,B,E][E,G,][E,B,E] [E,B,]3 [E,B,E]3 | [D,B,]2 [D,B,] [B,,F,]2 [B,,B,] [F,A,E][F,B,D][F,C] | %9
[M:3/4] [B,,B,]6 |] %10

